X: 26398
T: Merry Harriers, The
R: reel
M: 4/4
K: Adorian
eA A2 egfg|eA A2 BGBd|eA A2 efge|afge dgfg|
eA A2 egfg|eA A2 BGBd|eA A2 efge|afge d2 Bc||
dg g2 bg g2|dggd BGBc|dg g2 afgb|afge dcBc|
dg g2 bg g2|dggd BGBc|dg g2 gabg|afge dgfg||

